X:226
T:Indian Blood
C:Buck White
N:"Buck White and the Down Home Folks" County 735 Transcrubed by Mike Stangeland 
R:bluegrass
L:1/8
Q:1/4=240
M:4/4
K:C
[e''8a'8] | A2 Ac dc A2 | G2 GA cA G2 | E2 CD ED C2 | [e2A2E2A,2] [e2A2E2A,2] [e2A2E2A,2] [e2A2E2A,2] | 
[e2A2E2A,2] [e2A2E2A,2] [e2A2E2A,2] [e2A2E2A,2] | [e2A2E2A,2] [e2A2E2A,2] [e2A2E2A,2] [e2A2E2A,2] | 
[e2A2E2A,2] [e2A2E2A,2] [e2A2E2A,2] [e2A2E2A,2] |: A,2 A,2 A,B, CD | ED EF ED CB, | 
A,B, CD EF ED | "E"EG Bd e2 e2 | "Am"A,2 A,2 A,B, CD | ED EF ED CD | "E"EF ED CE DC | 
B,D CB, "Am"A,4 :|: e3e e2 e2 | ef ed cB A2 | e2 ee ef ed | "E"cA cd ee ee | "Am"eg ag ed cd | 
ec dc "C"AB cA | Gc AG "E"ED CE | DC B,2 A,4 :| 
M:2/4
"Am"e3e | e2 e2 | ef ed | cB A2 | e2 ee | ef ed | "E"cA cd | ee ee | e''4 | A2 Ac | 
dc A2 | "C"G2 GA | cA G2 | "E"E2 CE | DC B,A, | "Am"A,4 | 
M:4/4
z8 | 


